**kern	**kern
*part1	*part1
*staff2	*staff1
*I"Piano	*
*clefF4	*clefG2
*k[b-e-a-]	*k[b-e-a-]
=1	=1
4B-	(4e- 4g
4BB-	4d) 4f
=	=
4E-	(4B- 4g
4C 4F	4e- 4an
=	=
4D 4B-	4f 4b-
4E- 4B-	4g 4cc
=	=
4F 4B-	4f 4dd
4F 4An	4e-) 4cc
=	=
4BB- 4B-	2d 2b-
(4A-X	.
=	=
2G)	2e- 2b-
=	=
2A-	2e- 2cc
=	=
4G	4e- 4b-
4E-	4e- 4g
=	=
(4B-	(4e- 4g
8BB-)	8d) 8f
8r	8r
=	=
*-	*-
!!!system-decoration: {(s1,s2)}
